X:164
T:Wellington,s Bugle. JGi.164
M:6/8
L:1/8
Q:3/8=110
S:Joshua Gibbons MS,1823,Tealby,Lincs.
R:quick step
O:Tealby,Lincolnshire
Z:VMP/R.Greig, 2009
K:C
G|c2Gc2G|c2cc2e|g2e dcd|cded2G|
|c2Gc2G|c2cc2e|g2e dcd|c3-c2:|
|:c|BcdG2d|cdeG2e|gfd gec|BdBG2c|
BcdG2d|Bcd Gcd|gfd gec|BdB GAB:|
|:c2Gc2G|cGec2e|g2ea2f|g2ec2G
ccG cGe|cce ecg|ceg GAB|c3-c2:|

